assets/digitalocean-light.svg

<svg width="256" height="256" viewBox="0 0 256 256" fill="none" xmlns="http://www.w3.org/2000/svg">
<g id="DO" clip-path="url(#clip0_1_54)">
<path id="Vector" d="M60 0H196C229.1 0 256 26.9 256 60V196C256 229.1 229.1 256 196 256H60C26.9 256 0 229.1 0 196V60C0 26.9 26.9 0 60 0Z" fill="white"/>
<g id="Group 13">
<path id="Vector_2" d="M128 222.994V186.194C167 186.194 197.2 147.594 182.3 106.494C176.8 91.2937 164.7 79.1937 149.4 73.6937C108.4 58.7937 69.8 88.9937 69.8 127.994H33C33 65.7937 93.1 17.3937 158.3 37.6937C186.8 46.5937 209.4 69.1937 218.3 97.6937C238.6 162.894 190.2 222.994 128 222.994Z" fill="#0080FF"/>
<path id="Vector_3" fill-rule="evenodd" clip-rule="evenodd" d="M128.1 186.294H91.3999V149.594H128.1V186.294Z" fill="#0080FF"/>
<path id="Vector_4" fill-rule="evenodd" clip-rule="evenodd" d="M91.4002 214.494H63.2002V186.294H91.4002V214.494Z" fill="#0080FF"/>
<path id="Vector_5" fill-rule="evenodd" clip-rule="evenodd" d="M63.2001 186.293H39.6001V162.693H63.2001V186.293Z" fill="#0080FF"/>
</g>
</g>
<defs>
<clipPath id="clip0_1_54">
<rect width="256" height="256" fill="white"/>
</clipPath>
</defs>
</svg>

<?xml version="1.0" encoding="utf-8"?>
<!-- Generator: Adobe Illustrator 28.0.0, SVG Export Plug-In . SVG Version: 6.00 Build 0)  -->
<svg version="1.1" id="Layer_1" xmlns="http://www.w3.org/2000/svg" xmlns:xlink="http://www.w3.org/1999/xlink" x="0px" y="0px"
	 viewBox="0 0 256 256" style="enable-background:new 0 0 256 256;" xml:space="preserve">
<style type="text/css">
	.st0{fill:#FFFFFF;}
	.st1{fill:#0080FF;}
	.st2{fill-rule:evenodd;clip-rule:evenodd;fill:#0080FF;}
</style>
<path class="st0" d="M60,0h136c33.1,0,60,26.9,60,60v136c0,33.1-26.9,60-60,60H60c-33.1,0-60-26.9-60-60V60C0,26.9,26.9,0,60,0z"/>
<g id="XMLID_2350_">
	<g id="XMLID_2351_">
		<g>
			<g id="XMLID_00000060014932746476537470000009279586666567454607_">
				<g id="XMLID_00000175310651471352761790000001668358684172070290_">
					<path id="XMLID_00000064334757892631029850000002152694842366163072_" class="st1" d="M128,223v-36.8c39,0,69.2-38.6,54.3-79.7
						c-5.5-15.2-17.6-27.3-32.9-32.8C108.4,58.8,69.8,89,69.8,128l0,0H33c0-62.2,60.1-110.6,125.3-90.3c28.5,8.9,51.1,31.5,60,60
						C238.6,162.9,190.2,223,128,223z"/>
				</g>
				<polygon id="XMLID_00000134949832388686778860000012515581039992800898_" class="st2" points="128.1,186.3 91.4,186.3 
					91.4,149.6 91.4,149.6 128.1,149.6 128.1,149.6 				"/>
				<polygon id="XMLID_00000100368348489862745540000008609206734485297331_" class="st2" points="91.4,214.5 63.2,214.5 
					63.2,214.5 63.2,186.3 91.4,186.3 				"/>
				<path id="XMLID_00000173122418869118439680000007200865591619486859_" class="st2" d="M63.2,186.3H39.6l0,0v-23.6l0,0h23.6l0,0
					C63.2,162.7,63.2,186.3,63.2,186.3z"/>
			</g>
		</g>
	</g>
</g>
</svg>
